X: 23480
T: Lewis Lilt
R: polka
M: 2/4
K: Gmajor
D>G B2|cc B2|BA A>B|AG GD|
G>A B2|cc B2|BA A>B|AG G2||
d>d DD|EE D2|BB B>A|AG GG|
d>d DD|EE D2|BA A>B|AG G2||

